X: 945
T: All Covered With Moss
R: jig
M: 6/8
K: Gmajor
c2 E EDE|GED DED|c2 E EDE|~c3 dcA|
GED DED|DED DEF|~E3 GAB|1 ~c3 BAG:|2 ~c3 BAB||
~G3 BGB|AGA BGE|G2 A BGB|~c3 BAB|
[1 ~G3 BGB|AGA BAB|~d3 dcB|~c3 B2 A:|
[2 GBd gdB|~d3 dBA|GED GAB|~c3 ~B3||

